svgs/sharp-solid/file-zip.svg

<svg xmlns="http://www.w3.org/2000/svg" viewBox="0 0 512 512"><!--! Font Awesome Pro 6.4.0 by @fontawesome - https://fontawesome.com License - https://fontawesome.com/license (Commercial License) Copyright 2023 Fonticons, Inc. --><path d="M0 0H224V160H384V304H176V512H0V0zM384 128H256V0L384 128zM240 352h64 16v16 8 4.2l-2.1 3.7L263 480h41 16v32H304 240 224V496v-8-4.2l2.1-3.7L281 384H240 224V352h16zm144 16V496v16H352V496 368 352h32v16zm32-16h16 24c30.9 0 56 25.1 56 56s-25.1 56-56 56h-8v32 16H416V496 448 368 352zm32 80h8c13.3 0 24-10.7 24-24s-10.7-24-24-24h-8v48z"/></svg>

<svg xmlns="http://www.w3.org/2000/svg" viewBox="0 0 512 512"><!--! Font Awesome Pro 6.6.0 by @fontawesome - https://fontawesome.com License - https://fontawesome.com/license (Commercial License) Copyright 2024 Fonticons, Inc. --><path d="M0 0L224 0l0 160 160 0 0 144-208 0 0 208L0 512 0 0zM384 128l-128 0L256 0 384 128zM240 352l64 0 16 0 0 16 0 8 0 4.2-2.1 3.7L263 480l41 0 16 0 0 32-16 0-64 0-16 0 0-16 0-8 0-4.2 2.1-3.7L281 384l-41 0-16 0 0-32 16 0zm144 16l0 128 0 16-32 0 0-16 0-128 0-16 32 0 0 16zm32-16l16 0 24 0c30.9 0 56 25.1 56 56s-25.1 56-56 56l-8 0 0 32 0 16-32 0 0-16 0-48 0-80 0-16zm32 80l8 0c13.3 0 24-10.7 24-24s-10.7-24-24-24l-8 0 0 48z"/></svg>
